images/3247353.svg

<?xml version="1.0" encoding="UTF-8"?>
<svg xmlns="http://www.w3.org/2000/svg" xmlns:xlink="http://www.w3.org/1999/xlink" width="300pt" height="300pt" viewBox="0 0 300 300" version="1.1">
<defs>
<g>
<symbol overflow="visible" id="glyph0-0">
<path style="stroke:none;" d="M 0.453125 1.59375 L 0.453125 -6.34375 L 4.953125 -6.34375 L 4.953125 1.59375 Z M 0.953125 1.09375 L 4.453125 1.09375 L 4.453125 -5.84375 L 0.953125 -5.84375 Z M 0.953125 1.09375 "/>
</symbol>
<symbol overflow="visible" id="glyph0-1">
<path style="stroke:none;" d="M 0.890625 -6.5625 L 2.078125 -6.5625 L 4.984375 -1.078125 L 4.984375 -6.5625 L 5.84375 -6.5625 L 5.84375 0 L 4.65625 0 L 1.75 -5.484375 L 1.75 0 L 0.890625 0 Z M 0.890625 -6.5625 "/>
</symbol>
<symbol overflow="visible" id="glyph0-2">
<path style="stroke:none;" d="M 3.546875 -5.953125 C 2.898438 -5.953125 2.382812 -5.710938 2 -5.234375 C 1.625 -4.753906 1.4375 -4.101562 1.4375 -3.28125 C 1.4375 -2.445312 1.625 -1.789062 2 -1.3125 C 2.382812 -0.832031 2.898438 -0.59375 3.546875 -0.59375 C 4.191406 -0.59375 4.703125 -0.832031 5.078125 -1.3125 C 5.453125 -1.789062 5.640625 -2.445312 5.640625 -3.28125 C 5.640625 -4.101562 5.453125 -4.753906 5.078125 -5.234375 C 4.703125 -5.710938 4.191406 -5.953125 3.546875 -5.953125 Z M 3.546875 -6.6875 C 4.460938 -6.6875 5.195312 -6.375 5.75 -5.75 C 6.300781 -5.132812 6.578125 -4.3125 6.578125 -3.28125 C 6.578125 -2.238281 6.300781 -1.410156 5.75 -0.796875 C 5.195312 -0.179688 4.460938 0.125 3.546875 0.125 C 2.617188 0.125 1.878906 -0.179688 1.328125 -0.796875 C 0.773438 -1.410156 0.5 -2.238281 0.5 -3.28125 C 0.5 -4.3125 0.773438 -5.132812 1.328125 -5.75 C 1.878906 -6.375 2.617188 -6.6875 3.546875 -6.6875 Z M 3.546875 -6.6875 "/>
</symbol>
<symbol overflow="visible" id="glyph0-3">
<path style="stroke:none;" d="M 0.890625 -6.5625 L 1.765625 -6.5625 L 1.765625 -3.875 L 5 -3.875 L 5 -6.5625 L 5.890625 -6.5625 L 5.890625 0 L 5 0 L 5 -3.125 L 1.765625 -3.125 L 1.765625 0 L 0.890625 0 Z M 0.890625 -6.5625 "/>
</symbol>
</g>
</defs>
<g id="surface46077">
<rect x="0" y="0" width="300" height="300" style="fill:rgb(100%,100%,100%);fill-opacity:1;stroke:none;"/>
<path style="fill:none;stroke-width:1.2;stroke-linecap:butt;stroke-linejoin:miter;stroke:rgb(0%,0%,0%);stroke-opacity:1;stroke-miterlimit:10;" d="M 79.894531 250.441406 L 90.40625 228.1875 "/>
<path style="fill:none;stroke-width:1.2;stroke-linecap:butt;stroke-linejoin:miter;stroke:rgb(0%,0%,0%);stroke-opacity:1;stroke-miterlimit:10;" d="M 90.40625 228.1875 L 102.496094 225.898438 "/>
<path style="fill:none;stroke-width:1.2;stroke-linecap:butt;stroke-linejoin:miter;stroke:rgb(0%,0%,100%);stroke-opacity:1;stroke-miterlimit:10;" d="M 102.496094 225.898438 L 114.585938 223.609375 "/>
<path style="fill:none;stroke-width:1.2;stroke-linecap:butt;stroke-linejoin:miter;stroke:rgb(0%,0%,0%);stroke-opacity:1;stroke-miterlimit:10;" d="M 91.746094 222.039062 L 101.417969 220.207031 "/>
<path style="fill:none;stroke-width:1.2;stroke-linecap:butt;stroke-linejoin:miter;stroke:rgb(0%,0%,100%);stroke-opacity:1;stroke-miterlimit:10;" d="M 101.417969 220.207031 L 111.089844 218.375 "/>
<path style="fill:none;stroke-width:1.2;stroke-linecap:butt;stroke-linejoin:miter;stroke:rgb(0%,0%,0%);stroke-opacity:1;stroke-miterlimit:10;" d="M 78.578125 206.605469 L 90.40625 228.1875 "/>
<path style="fill:none;stroke-width:1.2;stroke-linecap:butt;stroke-linejoin:miter;stroke:rgb(0%,0%,100%);stroke-opacity:1;stroke-miterlimit:10;" d="M 114.585938 223.609375 L 117.707031 199.195312 "/>
<path style=" stroke:none;fill-rule:nonzero;fill:rgb(100%,100%,100%);fill-opacity:1;" d="M 111.585938 218.109375 L 118.585938 218.109375 L 118.585938 229.109375 L 111.585938 229.109375 Z M 111.585938 218.109375 "/>
<g style="fill:rgb(0%,0%,100%);fill-opacity:1;">
  <use xlink:href="#glyph0-1" x="111.585938" y="226.772461"/>
</g>
<path style="fill:none;stroke-width:1.2;stroke-linecap:butt;stroke-linejoin:miter;stroke:rgb(0%,0%,100%);stroke-opacity:1;stroke-miterlimit:10;" d="M 117.707031 199.195312 L 106.578125 193.941406 "/>
<path style="fill:none;stroke-width:1.2;stroke-linecap:butt;stroke-linejoin:miter;stroke:rgb(0%,0%,0%);stroke-opacity:1;stroke-miterlimit:10;" d="M 106.578125 193.941406 L 95.449219 188.683594 "/>
<path style="fill:none;stroke-width:1.2;stroke-linecap:butt;stroke-linejoin:miter;stroke:rgb(0%,0%,100%);stroke-opacity:1;stroke-miterlimit:10;" d="M 117.707031 199.195312 L 128.496094 193.28125 "/>
<path style="fill:none;stroke-width:1.2;stroke-linecap:butt;stroke-linejoin:miter;stroke:rgb(0%,0%,0%);stroke-opacity:1;stroke-miterlimit:10;" d="M 128.496094 193.28125 L 139.289062 187.367188 "/>
<path style=" stroke:none;fill-rule:nonzero;fill:rgb(100%,100%,100%);fill-opacity:1;" d="M 114.707031 193.695312 L 121.707031 193.695312 L 121.707031 204.695312 L 114.707031 204.695312 Z M 114.707031 193.695312 "/>
<g style="fill:rgb(0%,0%,100%);fill-opacity:1;">
  <use xlink:href="#glyph0-1" x="114.707031" y="202.358398"/>
</g>
<path style="fill:none;stroke-width:1.2;stroke-linecap:butt;stroke-linejoin:miter;stroke:rgb(0%,0%,0%);stroke-opacity:1;stroke-miterlimit:10;" d="M 95.449219 188.683594 L 78.578125 206.605469 "/>
<path style="fill:none;stroke-width:1.2;stroke-linecap:butt;stroke-linejoin:miter;stroke:rgb(0%,0%,0%);stroke-opacity:1;stroke-miterlimit:10;" d="M 97.980469 194.445312 L 84.480469 208.78125 "/>
<path style="fill:none;stroke-width:1.2;stroke-linecap:butt;stroke-linejoin:miter;stroke:rgb(0%,0%,0%);stroke-opacity:1;stroke-miterlimit:10;" d="M 95.449219 188.683594 L 90.871094 164.503906 "/>
<path style="fill:none;stroke-width:1.2;stroke-linecap:butt;stroke-linejoin:miter;stroke:rgb(0%,0%,0%);stroke-opacity:1;stroke-miterlimit:10;" d="M 91.828125 161.769531 L 80.210938 157.707031 "/>
<path style="fill:none;stroke-width:1.2;stroke-linecap:butt;stroke-linejoin:miter;stroke:rgb(100%,0%,0%);stroke-opacity:1;stroke-miterlimit:10;" d="M 80.210938 157.707031 L 68.59375 153.644531 "/>
<path style="fill:none;stroke-width:1.2;stroke-linecap:butt;stroke-linejoin:miter;stroke:rgb(0%,0%,0%);stroke-opacity:1;stroke-miterlimit:10;" d="M 89.914062 167.238281 L 78.300781 163.175781 "/>
<path style="fill:none;stroke-width:1.2;stroke-linecap:butt;stroke-linejoin:miter;stroke:rgb(100%,0%,0%);stroke-opacity:1;stroke-miterlimit:10;" d="M 78.300781 163.175781 L 66.683594 159.109375 "/>
<path style="fill:none;stroke-width:1.2;stroke-linecap:butt;stroke-linejoin:miter;stroke:rgb(0%,0%,0%);stroke-opacity:1;stroke-miterlimit:10;" d="M 90.871094 164.503906 L 100.199219 156.476562 "/>
<path style="fill:none;stroke-width:1.2;stroke-linecap:butt;stroke-linejoin:miter;stroke:rgb(0%,0%,100%);stroke-opacity:1;stroke-miterlimit:10;" d="M 100.199219 156.476562 L 109.523438 148.445312 "/>
<path style=" stroke:none;fill-rule:nonzero;fill:rgb(100%,100%,100%);fill-opacity:1;" d="M 59.640625 150.878906 L 67.640625 150.878906 L 67.640625 161.878906 L 59.640625 161.878906 Z M 59.640625 150.878906 "/>
<g style="fill:rgb(100%,0%,0%);fill-opacity:1;">
  <use xlink:href="#glyph0-2" x="59.640625" y="159.541992"/>
</g>
<path style="fill:none;stroke-width:1;stroke-linecap:butt;stroke-linejoin:miter;stroke:rgb(0%,0%,0%);stroke-opacity:1;stroke-miterlimit:10;" d="M 104.945312 124.265625 L 104.945312 124.265625 M 104.980469 127.265625 L 106.007812 127.070312 M 105.019531 130.265625 L 107.070312 129.875 M 105.058594 133.265625 L 108.128906 132.683594 M 105.09375 136.265625 L 109.191406 135.488281 M 105.132812 139.265625 L 110.253906 138.292969 M 105.167969 142.265625 L 111.316406 141.101562 M 105.207031 145.261719 L 112.378906 143.90625 M 105.242188 148.261719 L 113.441406 146.710938 M 105.257812 149.253906 L 113.792969 147.640625 "/>
<path style=" stroke:none;fill-rule:nonzero;fill:rgb(100%,100%,100%);fill-opacity:1;" d="M 102.523438 142.945312 L 116.523438 142.945312 L 116.523438 153.945312 L 102.523438 153.945312 Z M 102.523438 142.945312 "/>
<g style="fill:rgb(0%,0%,100%);fill-opacity:1;">
  <use xlink:href="#glyph0-1" x="102.523438" y="151.608398"/>
  <use xlink:href="#glyph0-3" x="109.500977" y="151.608398"/>
</g>
<path style="fill:none;stroke-width:1.2;stroke-linecap:butt;stroke-linejoin:miter;stroke:rgb(0%,0%,0%);stroke-opacity:1;stroke-miterlimit:10;" d="M 104.945312 124.265625 L 81.714844 116.140625 "/>
<path style="fill:none;stroke-width:1.2;stroke-linecap:butt;stroke-linejoin:miter;stroke:rgb(0%,0%,0%);stroke-opacity:1;stroke-miterlimit:10;" d="M 104.945312 124.265625 L 123.597656 108.207031 "/>
<path style="fill:none;stroke-width:1.2;stroke-linecap:butt;stroke-linejoin:miter;stroke:rgb(0%,0%,0%);stroke-opacity:1;stroke-miterlimit:10;" d="M 81.714844 116.140625 L 77.132812 91.957031 "/>
<path style="fill:none;stroke-width:1.2;stroke-linecap:butt;stroke-linejoin:miter;stroke:rgb(0%,0%,0%);stroke-opacity:1;stroke-miterlimit:10;" d="M 75.566406 114.800781 L 71.902344 95.453125 "/>
<path style="fill:none;stroke-width:1.2;stroke-linecap:butt;stroke-linejoin:miter;stroke:rgb(0%,0%,0%);stroke-opacity:1;stroke-miterlimit:10;" d="M 63.0625 132.195312 L 81.714844 116.140625 "/>
<path style="fill:none;stroke-width:1.2;stroke-linecap:butt;stroke-linejoin:miter;stroke:rgb(0%,0%,0%);stroke-opacity:1;stroke-miterlimit:10;" d="M 77.132812 91.957031 L 53.902344 83.832031 "/>
<path style="fill:none;stroke-width:1.2;stroke-linecap:butt;stroke-linejoin:miter;stroke:rgb(0%,0%,0%);stroke-opacity:1;stroke-miterlimit:10;" d="M 53.902344 83.832031 L 35.25 99.890625 "/>
<path style="fill:none;stroke-width:1.2;stroke-linecap:butt;stroke-linejoin:miter;stroke:rgb(0%,0%,0%);stroke-opacity:1;stroke-miterlimit:10;" d="M 55.816406 89.828125 L 40.894531 102.671875 "/>
<path style="fill:none;stroke-width:1.2;stroke-linecap:butt;stroke-linejoin:miter;stroke:rgb(0%,0%,0%);stroke-opacity:1;stroke-miterlimit:10;" d="M 35.25 99.890625 L 39.828125 124.070312 "/>
<path style="fill:none;stroke-width:1.2;stroke-linecap:butt;stroke-linejoin:miter;stroke:rgb(0%,0%,0%);stroke-opacity:1;stroke-miterlimit:10;" d="M 39.828125 124.070312 L 63.0625 132.195312 "/>
<path style="fill:none;stroke-width:1.2;stroke-linecap:butt;stroke-linejoin:miter;stroke:rgb(0%,0%,0%);stroke-opacity:1;stroke-miterlimit:10;" d="M 44.0625 119.417969 L 62.648438 125.917969 "/>
<path style="fill:none;stroke-width:1.2;stroke-linecap:butt;stroke-linejoin:miter;stroke:rgb(0%,0%,0%);stroke-opacity:1;stroke-miterlimit:10;" d="M 123.597656 108.207031 L 111.023438 87.050781 "/>
<path style="fill:none;stroke-width:1;stroke-linecap:butt;stroke-linejoin:miter;stroke:rgb(0%,0%,0%);stroke-opacity:1;stroke-miterlimit:10;" d="M 123.597656 108.207031 L 123.597656 108.207031 M 125.554688 110.484375 L 126.214844 109.675781 M 127.511719 112.757812 L 128.832031 111.140625 M 129.46875 115.03125 L 131.449219 112.609375 M 131.425781 117.304688 L 134.066406 114.074219 M 133.382812 119.578125 L 136.683594 115.542969 M 135.339844 121.851562 L 139.300781 117.007812 M 137.296875 124.125 L 141.917969 118.476562 M 139.253906 126.398438 L 144.535156 119.941406 M 139.898438 127.152344 L 145.398438 120.429688 "/>
<path style="fill:none;stroke-width:1.2;stroke-linecap:butt;stroke-linejoin:miter;stroke:rgb(0%,0%,0%);stroke-opacity:1;stroke-miterlimit:10;" d="M 135.632812 86.742188 L 123.597656 108.207031 "/>
<path style="fill:none;stroke-width:1;stroke-linecap:butt;stroke-linejoin:miter;stroke:rgb(0%,0%,0%);stroke-opacity:1;stroke-miterlimit:10;" d="M 135.632812 86.742188 L 135.632812 86.742188 M 132.671875 86.257812 L 132.6875 87.300781 M 129.710938 85.773438 L 129.738281 87.859375 M 126.75 85.289062 L 126.789062 88.417969 M 123.789062 84.804688 L 123.84375 88.976562 M 120.832031 84.320312 L 120.894531 89.535156 M 117.871094 83.835938 L 117.949219 90.09375 M 114.910156 83.351562 L 115 90.652344 M 111.949219 82.867188 L 112.054688 91.210938 M 110.96875 82.707031 L 111.078125 91.394531 "/>
<path style="fill:none;stroke-width:1.2;stroke-linecap:butt;stroke-linejoin:miter;stroke:rgb(0%,0%,0%);stroke-opacity:1;stroke-miterlimit:10;" d="M 135.632812 86.742188 L 156.789062 74.167969 "/>
<path style=" stroke:none;fill-rule:nonzero;fill:rgb(0%,0%,0%);fill-opacity:1;" d="M 156.789062 74.167969 L 160.824219 49.503906 L 152.136719 49.613281 Z M 156.789062 74.167969 "/>
<path style="fill:none;stroke-width:1.2;stroke-linecap:butt;stroke-linejoin:miter;stroke:rgb(0%,0%,0%);stroke-opacity:1;stroke-miterlimit:10;" d="M 156.789062 74.167969 L 178.257812 86.203125 "/>
<path style="fill:none;stroke-width:1.2;stroke-linecap:butt;stroke-linejoin:miter;stroke:rgb(0%,0%,0%);stroke-opacity:1;stroke-miterlimit:10;" d="M 179.738281 88.691406 L 190.316406 82.40625 "/>
<path style="fill:none;stroke-width:1.2;stroke-linecap:butt;stroke-linejoin:miter;stroke:rgb(100%,0%,0%);stroke-opacity:1;stroke-miterlimit:10;" d="M 190.316406 82.40625 L 200.894531 76.121094 "/>
<path style="fill:none;stroke-width:1.2;stroke-linecap:butt;stroke-linejoin:miter;stroke:rgb(0%,0%,0%);stroke-opacity:1;stroke-miterlimit:10;" d="M 176.78125 83.714844 L 187.359375 77.429688 "/>
<path style="fill:none;stroke-width:1.2;stroke-linecap:butt;stroke-linejoin:miter;stroke:rgb(100%,0%,0%);stroke-opacity:1;stroke-miterlimit:10;" d="M 187.359375 77.429688 L 197.9375 71.140625 "/>
<path style="fill:none;stroke-width:1.2;stroke-linecap:butt;stroke-linejoin:miter;stroke:rgb(0%,0%,0%);stroke-opacity:1;stroke-miterlimit:10;" d="M 178.257812 86.203125 L 178.414062 98.507812 "/>
<path style="fill:none;stroke-width:1.2;stroke-linecap:butt;stroke-linejoin:miter;stroke:rgb(0%,0%,100%);stroke-opacity:1;stroke-miterlimit:10;" d="M 178.414062 98.507812 L 178.570312 110.8125 "/>
<path style=" stroke:none;fill-rule:nonzero;fill:rgb(100%,100%,100%);fill-opacity:1;" d="M 195.417969 68.128906 L 203.417969 68.128906 L 203.417969 79.128906 L 195.417969 79.128906 Z M 195.417969 68.128906 "/>
<g style="fill:rgb(100%,0%,0%);fill-opacity:1;">
  <use xlink:href="#glyph0-2" x="195.417969" y="76.791992"/>
</g>
<path style="fill:none;stroke-width:1.2;stroke-linecap:butt;stroke-linejoin:miter;stroke:rgb(0%,0%,100%);stroke-opacity:1;stroke-miterlimit:10;" d="M 178.570312 110.8125 L 189.304688 116.832031 "/>
<path style="fill:none;stroke-width:1.2;stroke-linecap:butt;stroke-linejoin:miter;stroke:rgb(0%,0%,0%);stroke-opacity:1;stroke-miterlimit:10;" d="M 189.304688 116.832031 L 200.035156 122.847656 "/>
<path style=" stroke:none;fill-rule:nonzero;fill:rgb(100%,100%,100%);fill-opacity:1;" d="M 171.570312 105.3125 L 185.570312 105.3125 L 185.570312 116.3125 L 171.570312 116.3125 Z M 171.570312 105.3125 "/>
<g style="fill:rgb(0%,0%,100%);fill-opacity:1;">
  <use xlink:href="#glyph0-1" x="171.570312" y="113.975586"/>
  <use xlink:href="#glyph0-3" x="178.547852" y="113.975586"/>
</g>
<path style="fill:none;stroke-width:1.2;stroke-linecap:butt;stroke-linejoin:miter;stroke:rgb(0%,0%,0%);stroke-opacity:1;stroke-miterlimit:10;" d="M 200.035156 122.847656 L 200.347656 147.460938 "/>
<path style="fill:none;stroke-width:1.2;stroke-linecap:butt;stroke-linejoin:miter;stroke:rgb(0%,0%,0%);stroke-opacity:1;stroke-miterlimit:10;" d="M 205.859375 125.238281 L 206.105469 144.925781 "/>
<path style="fill:none;stroke-width:1.2;stroke-linecap:butt;stroke-linejoin:miter;stroke:rgb(0%,0%,0%);stroke-opacity:1;stroke-miterlimit:10;" d="M 221.195312 110.277344 L 200.035156 122.847656 "/>
<path style="fill:none;stroke-width:1.2;stroke-linecap:butt;stroke-linejoin:miter;stroke:rgb(0%,0%,0%);stroke-opacity:1;stroke-miterlimit:10;" d="M 200.347656 147.460938 L 221.816406 159.496094 "/>
<path style="fill:none;stroke-width:1.2;stroke-linecap:butt;stroke-linejoin:miter;stroke:rgb(0%,0%,0%);stroke-opacity:1;stroke-miterlimit:10;" d="M 221.816406 159.496094 L 222.125 184.105469 "/>
<path style="fill:none;stroke-width:1.2;stroke-linecap:butt;stroke-linejoin:miter;stroke:rgb(0%,0%,0%);stroke-opacity:1;stroke-miterlimit:10;" d="M 227.636719 161.882812 L 227.882812 181.570312 "/>
<path style="fill:none;stroke-width:1.2;stroke-linecap:butt;stroke-linejoin:miter;stroke:rgb(0%,0%,0%);stroke-opacity:1;stroke-miterlimit:10;" d="M 242.972656 146.921875 L 221.816406 159.496094 "/>
<path style="fill:none;stroke-width:1.2;stroke-linecap:butt;stroke-linejoin:miter;stroke:rgb(0%,0%,0%);stroke-opacity:1;stroke-miterlimit:10;" d="M 222.125 184.105469 L 243.59375 196.140625 "/>
<path style="fill:none;stroke-width:1.2;stroke-linecap:butt;stroke-linejoin:miter;stroke:rgb(0%,0%,0%);stroke-opacity:1;stroke-miterlimit:10;" d="M 243.59375 196.140625 L 264.75 183.566406 "/>
<path style="fill:none;stroke-width:1.2;stroke-linecap:butt;stroke-linejoin:miter;stroke:rgb(0%,0%,0%);stroke-opacity:1;stroke-miterlimit:10;" d="M 242.75 189.90625 L 259.675781 179.847656 "/>
<path style="fill:none;stroke-width:1.2;stroke-linecap:butt;stroke-linejoin:miter;stroke:rgb(0%,0%,0%);stroke-opacity:1;stroke-miterlimit:10;" d="M 264.75 183.566406 L 264.441406 158.957031 "/>
<path style="fill:none;stroke-width:1.2;stroke-linecap:butt;stroke-linejoin:miter;stroke:rgb(0%,0%,0%);stroke-opacity:1;stroke-miterlimit:10;" d="M 264.441406 158.957031 L 242.972656 146.921875 "/>
<path style="fill:none;stroke-width:1.2;stroke-linecap:butt;stroke-linejoin:miter;stroke:rgb(0%,0%,0%);stroke-opacity:1;stroke-miterlimit:10;" d="M 259.460938 162.804688 L 242.285156 153.175781 "/>
<path style="fill:none;stroke-width:1.2;stroke-linecap:butt;stroke-linejoin:miter;stroke:rgb(0%,0%,0%);stroke-opacity:1;stroke-miterlimit:10;" d="M 242.972656 146.921875 L 242.660156 122.3125 "/>
<path style="fill:none;stroke-width:1.2;stroke-linecap:butt;stroke-linejoin:miter;stroke:rgb(0%,0%,0%);stroke-opacity:1;stroke-miterlimit:10;" d="M 242.660156 122.3125 L 221.195312 110.277344 "/>
<path style="fill:none;stroke-width:1.2;stroke-linecap:butt;stroke-linejoin:miter;stroke:rgb(0%,0%,0%);stroke-opacity:1;stroke-miterlimit:10;" d="M 237.683594 126.160156 L 220.507812 116.53125 "/>
</g>
</svg>

<svg xmlns="http://www.w3.org/2000/svg" xmlns:xlink="http://www.w3.org/1999/xlink" width="300pt" height="300pt" viewBox="0 0 300 300"><defs><symbol overflow="visible"><path d="M.453 1.594v-7.938h4.5v7.938zm.5-.5h3.5v-6.938h-3.5zm0 0"/></symbol><symbol overflow="visible" id="a"><path d="M.89-6.563H2.08l2.906 5.485v-5.484h.86V0H4.656L1.75-5.484V0H.89zm0 0"/></symbol><symbol overflow="visible" id="b"><path d="M3.547-5.953c-.65 0-1.164.242-1.547.72-.375.48-.563 1.13-.563 1.952 0 .835.188 1.49.563 1.967.383.48.898.72 1.547.72.644 0 1.156-.24 1.53-.72.376-.476.564-1.132.564-1.968 0-.822-.187-1.474-.562-1.954-.375-.477-.887-.72-1.53-.72zm0-.734c.914 0 1.648.312 2.203.937.55.617.828 1.438.828 2.47 0 1.042-.277 1.87-.828 2.483-.555.617-1.29.922-2.203.922-.93 0-1.668-.305-2.22-.922C.774-1.41.5-2.237.5-3.28c0-1.033.273-1.853.828-2.47.55-.625 1.29-.938 2.22-.938zm0 0"/></symbol><symbol overflow="visible" id="c"><path d="M.89-6.563h.876v2.688H5v-2.688h.89V0H5v-3.125H1.766V0H.89zm0 0"/></symbol></defs><g><path fill="#fff" d="M0 0h300v300H0z"/><path d="M79.895 250.44l10.51-22.252M90.406 228.188l12.09-2.29" stroke-width="1.2" stroke="#000" stroke-miterlimit="10" fill="none"/><path d="M102.496 225.898l12.09-2.29" stroke-width="1.2" stroke="#00f" stroke-miterlimit="10" fill="none"/><path d="M91.746 222.04l9.672-1.833" stroke-width="1.2" stroke="#000" stroke-miterlimit="10" fill="none"/><path d="M101.418 220.207l9.672-1.832" stroke-width="1.2" stroke="#00f" stroke-miterlimit="10" fill="none"/><path d="M78.578 206.605l11.828 21.583" stroke-width="1.2" stroke="#000" stroke-miterlimit="10" fill="none"/><path d="M114.586 223.61l3.12-24.415" stroke-width="1.2" stroke="#00f" stroke-miterlimit="10" fill="none"/><path d="M111.586 218.11h7v11h-7zm0 0" fill="#fff"/><use xlink:href="#a" x="111.586" y="226.772" fill="#00f"/><path d="M117.707 199.195l-11.13-5.254" stroke-width="1.2" stroke="#00f" stroke-miterlimit="10" fill="none"/><path d="M106.578 193.94l-11.13-5.256" stroke-width="1.2" stroke="#000" stroke-miterlimit="10" fill="none"/><path d="M117.707 199.195l10.79-5.914" stroke-width="1.2" stroke="#00f" stroke-miterlimit="10" fill="none"/><path d="M128.496 193.28l10.793-5.913" stroke-width="1.2" stroke="#000" stroke-miterlimit="10" fill="none"/><path d="M114.707 193.695h7v11h-7zm0 0" fill="#fff"/><use xlink:href="#a" x="114.707" y="202.358" fill="#00f"/><path d="M95.45 188.684l-16.872 17.92M97.98 194.445l-13.5 14.336M95.45 188.684l-4.58-24.18M91.828 161.77l-11.617-4.063" stroke-width="1.2" stroke="#000" stroke-miterlimit="10" fill="none"/><path d="M80.21 157.707l-11.616-4.062" stroke-width="1.2" stroke="#f00" stroke-miterlimit="10" fill="none"/><path d="M89.914 167.238L78.3 163.176" stroke-width="1.2" stroke="#000" stroke-miterlimit="10" fill="none"/><path d="M78.3 163.176l-11.616-4.067" stroke-width="1.2" stroke="#f00" stroke-miterlimit="10" fill="none"/><path d="M90.87 164.504l9.33-8.027" stroke-width="1.2" stroke="#000" stroke-miterlimit="10" fill="none"/><path d="M100.2 156.477l9.323-8.032" stroke-width="1.2" stroke="#00f" stroke-miterlimit="10" fill="none"/><path d="M59.64 150.88h8v11h-8zm0 0" fill="#fff"/><use xlink:href="#b" x="59.641" y="159.542" fill="#f00"/><path d="M104.945 124.266m.035 3l1.028-.196m-.988 3.196l2.05-.39m-2.01 3.39l3.07-.582m-3.036 3.582l4.097-.778m-4.057 3.778l5.12-.973m-5.085 3.973l6.148-1.164m-6.11 4.16l7.173-1.356m-7.138 4.356l8.2-1.55m-8.184 2.542l8.535-1.613" stroke="#000" stroke-miterlimit="10" fill="none"/><path d="M102.523 142.945h14v11h-14zm0 0" fill="#fff"/><g fill="#00f"><use xlink:href="#a" x="102.523" y="151.608"/><use xlink:href="#c" x="109.501" y="151.608"/></g><path d="M104.945 124.266l-23.23-8.125M104.945 124.266l18.653-16.06M81.715 116.14l-4.582-24.183M75.566 114.8l-3.664-19.347M63.063 132.195l18.652-16.054M77.133 91.957l-23.23-8.125M53.902 83.832L35.25 99.892M55.816 89.828l-14.92 12.844M35.25 99.89l4.578 24.18M39.828 124.07l23.234 8.125M44.063 119.418l18.585 6.5M123.598 108.207L111.023 87.05" stroke-width="1.2" stroke="#000" stroke-miterlimit="10" fill="none"/><path d="M123.598 108.207m1.957 2.277l.66-.808m1.297 3.082l1.32-1.617m.637 3.89l1.98-2.42m-.024 4.695l2.64-3.23m-.683 5.503l3.3-4.035m-1.343 6.31l3.96-4.845m-2.003 7.117l4.62-5.648m-2.663 7.92l5.28-6.456m-4.636 7.212l5.5-6.722" stroke="#000" stroke-miterlimit="10" fill="none"/><path d="M135.633 86.742l-12.035 21.465" stroke-width="1.2" stroke="#000" stroke-miterlimit="10" fill="none"/><path d="M135.633 86.742m-2.96-.484l.014 1.043m-2.976-1.527l.028 2.086m-2.988-2.57l.04 3.128m-3-3.613l.054 4.172m-3.012-4.657l.063 5.215m-3.024-5.7l.08 6.26m-3.04-6.743l.09 7.3m-3.05-7.785l.105 8.344m-1.086-8.503l.108 8.688" stroke="#000" stroke-miterlimit="10" fill="none"/><path d="M135.633 86.742l21.156-12.574" stroke-width="1.2" stroke="#000" stroke-miterlimit="10" fill="none"/><path d="M156.79 74.168l4.034-24.664-8.687.11zm0 0"/><path d="M156.79 74.168l21.468 12.035M179.738 88.69l10.578-6.284" stroke-width="1.2" stroke="#000" stroke-miterlimit="10" fill="none"/><path d="M190.316 82.406l10.58-6.285" stroke-width="1.2" stroke="#f00" stroke-miterlimit="10" fill="none"/><path d="M176.78 83.715l10.58-6.285" stroke-width="1.2" stroke="#000" stroke-miterlimit="10" fill="none"/><path d="M187.36 77.43l10.577-6.29" stroke-width="1.2" stroke="#f00" stroke-miterlimit="10" fill="none"/><path d="M178.258 86.203l.156 12.305" stroke-width="1.2" stroke="#000" stroke-miterlimit="10" fill="none"/><path d="M178.414 98.508l.156 12.305" stroke-width="1.2" stroke="#00f" stroke-miterlimit="10" fill="none"/><path d="M195.418 68.13h8v11h-8zm0 0" fill="#fff"/><use xlink:href="#b" x="195.418" y="76.792" fill="#f00"/><path d="M178.57 110.813l10.735 6.02" stroke-width="1.2" stroke="#00f" stroke-miterlimit="10" fill="none"/><path d="M189.305 116.832l10.73 6.016" stroke-width="1.2" stroke="#000" stroke-miterlimit="10" fill="none"/><path d="M171.57 105.313h14v11h-14zm0 0" fill="#fff"/><g fill="#00f"><use xlink:href="#a" x="171.57" y="113.976"/><use xlink:href="#c" x="178.548" y="113.976"/></g><path d="M200.035 122.848l.313 24.613M205.86 125.238l.245 19.688M221.195 110.277l-21.16 12.57M200.348 147.46l21.468 12.036M221.816 159.496l.31 24.61M227.637 161.883l.246 19.687M242.973 146.922l-21.157 12.574M222.125 184.105l21.47 12.036M243.594 196.14l21.156-12.574M242.75 189.906l16.926-10.058M264.75 183.566l-.31-24.61M264.44 158.957l-21.467-12.035M259.46 162.805l-17.175-9.63M242.973 146.922l-.313-24.61M242.66 122.313l-21.465-12.036M237.684 126.16l-17.176-9.63" stroke-width="1.2" stroke="#000" stroke-miterlimit="10" fill="none"/></g></svg>
